svgs/walmart.svg

<svg xmlns="http://www.w3.org/2000/svg" width="192" height="192" fill="none" viewBox="0 0 192 192"><path stroke="#000" stroke-linejoin="round" stroke-width="12" d="m102 28-1 32a5 5 0 0 1-10 0l-1-32a6 6 0 0 1 12 0m55.89 39.196L129.677 82.33a5 5 0 1 1-5-8.66l27.213-16.866a6 6 0 0 1 6 10.392m0 57.608-28.213-15.134a5 5 0 0 0-5 8.66l27.213 16.866a6 6 0 0 0 6-10.392M102 164l-1-32a5 5 0 0 0-10 0l-1 32a6 6 0 0 0 12 0m-61.89-28.804 27.213-16.866a5 5 0 0 0-5-8.66L34.11 124.804a6 6 0 0 0 6 10.392m0-78.392L67.323 73.67a5 5 0 1 1-5 8.66L34.11 67.196a6 6 0 0 1 6-10.392"/></svg>

<svg xmlns="http://www.w3.org/2000/svg" width="192" height="192" fill="none" viewBox="0 0 192 192">
  <path stroke="#000" stroke-linejoin="round" stroke-width="12"
    d="M 102 28 l -1 32 A 5 5 0 0 1 91 60 l -1 -32 A 6 6 0 0 1 102 28 M 157.89 67.196 L 129.677 82.33 A 5 5 0 1 1 124.677 73.67 l 27.213 -16.866 A 6 6 0 0 1 157.89 67.196 M 157.89 124.804 L 129.677 109.67 A 5 5 0 0 0 124.677 118.33 l 27.213 16.866 A 6 6 0 0 0 157.89 124.804 M 102 164 L 101 132 A 5 5 0 0 0 91 132 l -1 32 A 6 6 0 0 0 102 164 M 40.11 135.196 L 67.323 118.33 A 5 5 0 0 0 62.323 109.67 L 34.11 124.804 A 6 6 0 0 0 40.11 135.196 M 40.11 56.804 L 67.323 73.67 a 5 5 0 1 1 -5 8.66 L 34.11 67.196 A 6 6 0 0 1 40.11 56.804" />
</svg>
